X:465
T: MIT LUST THAET ICH AUSREITEN
N: E0418
O: Europa, Mitteleuropa, Deutschland
R: Liebes - Lied
M: 4/4
L: 1/8
K: G
G2 | G2G2G2G2 | A4A4 |
d4d2A2 | d2c4_B2 | A4z2
d2 | d2d2d2d2 | c2A4
_B2 | G4A2c2- | c_BAGA4 | G4
d4 | =f2d3_Bc2 | A2G4

@@@ Tune index: 4115
